X: 31095
T: Paddy Fahey's
R: reel
M: 4/4
K: Gmajor
DGGA B2BG|ABAG FDD2|dcBd c2Ac|BGAF DGG2|
DGGA ~B3G|ABAG FDD2|d2Bd c2Ac|1 BGAF G2GE:|2 BGAF G2Bd||
~g3a bgag|bgag fdd2|~g3a bgag|fdcA dgg2|
gedc BG (3Bcd|~c3d cABc|dgge f2dc|1 BGAF DGG2:|2 BGAF DGGE||

